;FLAVOR:Marlin
;TIME:11968
;Filament used: 8.20108m
;Layer height: 0.2
;MINX:26.893
;MINY:34.826
;MINZ:0.2
;MAXX:222.708
;MAXY:185.4
;MAXZ:3.8
;TARGET_MACHINE.NAME:Creality Ender-3
;Generated with Cura_SteamEngine 5.5.0
M140 S50
M105
M190 S50
M104 S200
M105
M109 S200
M82 ;absolute extrusion mode
; Ender 3 Custom Start G-code
G92 E0 ; Reset Extruder
G28 ; Home all axes
G1 Z2.0 F3000 ; Move Z Axis up little to prevent scratching of Heat Bed
G1 X0.1 Y20 Z0.3 F5000.0 ; Move to start position
G1 X0.1 Y200.0 Z0.3 F1500.0 E15 ; Draw the first line
G1 X0.4 Y200.0 Z0.3 F5000.0 ; Move to side a little
G1 X0.4 Y20 Z0.3 F1500.0 E30 ; Draw the second line
G92 E0 ; Reset Extruder
G1 Z2.0 F3000 ; Move Z Axis up little to prevent scratching of Heat Bed
G1 X5 Y20 Z0.3 F5000.0 ; Move over to prevent blob squish
G92 E0
G92 E0
G1 F2700 E-5
;LAYER_COUNT:19
;LAYER:0
M107
G0 F6000 X66.584 Y41.727 Z0.2
;TYPE:SKIRT
G1 F2700 E0
G1 F1200 X67.166 Y40.861 E0.0347
G1 X67.78 Y40.104 E0.06712
G1 X68.458 Y39.406 E0.09949
G1 X69.195 Y38.77 E0.13187
G1 X69.986 Y38.2 E0.16429
G1 X70.762 Y37.738 E0.19433
G1 X71.703 Y37.286 E0.22905
G1 X72.615 Y36.945 E0.26144
G1 X73.555 Y36.686 E0.29387
G1 X74.52 Y36.51 E0.32649
G1 X75.648 Y36.415 E0.36414
G1 X76.305 Y36.4 E0.386
G1 X93.412 Y36.4 E0.95498
G1 X95.996 Y36.363 E1.04093
G1 X98.561 Y36.254 E1.12632
G1 X101.04 Y36.078 E1.20898
G1 X103.541 Y35.831 E1.29257
G1 X106.048 Y35.51 E1.37663
G1 X108.673 Y35.096 E1.46502
G1 X109.32 Y34.986 E1.48685
G1 X110.216 Y34.874 E1.51688
G1 X110.829 Y34.839 E1.5373
G1 X111.436 Y34.826 E1.5575
G1 X211.012 Y34.826 E4.86941
G1 X211.892 Y34.839 E4.89868
G1 X212.864 Y34.898 E4.93107
G1 X213.827 Y35.044 E4.96346
G1 X214.774 Y35.275 E4.99589
G1 X215.662 Y35.575 E5.02706
G1 X216.554 Y35.965 E5.05944
G1 X217.437 Y36.452 E5.09298
G1 X218.188 Y36.954 E5.12302
G1 X219.003 Y37.612 E5.15786
G1 X219.701 Y38.29 E5.19023
G1 X220.337 Y39.027 E5.22261
G1 X220.907 Y39.817 E5.25501
G1 X221.369 Y40.593 E5.28505
G1 X221.823 Y41.535 E5.31983
G1 X222.152 Y42.413 E5.35101
G1 X222.421 Y43.385 E5.38455
G1 X222.598 Y44.351 E5.41722
G1 X222.693 Y45.481 E5.45494
G1 X222.708 Y46.156 E5.47739
G1 X222.707 Y65.596 E6.12397
G1 X222.695 Y66.333 E6.14848
G1 X222.636 Y67.305 E6.18087
G1 X222.49 Y68.268 E6.21327
G1 X222.259 Y69.215 E6.24569
G1 X221.946 Y70.136 E6.27804
G1 X221.552 Y71.028 E6.31048
G1 X221.081 Y71.881 E6.34288
G1 X220.537 Y72.687 E6.37523
G1 X219.924 Y73.444 E6.40762
G1 X219.249 Y74.14 E6.43987
G1 X218.639 Y74.675 E6.46686
G1 X217.721 Y75.416 E6.5061
G1 X215.73 Y77.074 E6.59227
G1 X213.835 Y78.745 E6.6763
G1 X211.978 Y80.476 E6.76074
G1 X210.226 Y82.204 E6.84259
G1 X208.452 Y84.057 E6.92791
G1 X206.768 Y85.918 E7.01139
G1 X205.121 Y87.845 E7.0957
G1 X203.572 Y89.763 E7.1777
G1 X202.036 Y91.784 E7.26213
G1 X200.567 Y93.831 E7.34593
G1 X199.152 Y95.926 E7.43001
G1 X197.817 Y98.029 E7.51286
G1 X196.522 Y100.202 E7.597
G1 X195.298 Y102.394 E7.6805
G1 X194.126 Y104.641 E7.76479
G1 X193.024 Y106.907 E7.8486
G1 X191.989 Y109.194 E7.93209
G1 X191.014 Y111.531 E8.01631
G1 X190.111 Y113.874 E8.09983
G1 X189.273 Y116.248 E8.18356
G1 X188.501 Y118.651 E8.26751
G1 X187.807 Y121.041 E8.35028
G1 X187.164 Y123.509 E8.43511
G1 X186.599 Y125.967 E8.519
G1 X186.105 Y128.429 E8.60252
G1 X185.685 Y130.882 E8.68529
G1 X185.331 Y133.372 E8.76894
G1 X185.045 Y135.892 E8.85329
G1 X184.831 Y138.381 E8.93638
G1 X184.69 Y140.896 E9.02016
G1 X184.617 Y143.455 E9.10531
G1 X184.608 Y144.76 E9.14872
G1 X184.607 Y172.256 E10.06324
G1 X184.594 Y173.019 E10.08862
G1 X184.534 Y173.992 E10.12104
G1 X184.387 Y174.955 E10.15344
G1 X184.155 Y175.9 E10.18581
G1 X183.841 Y176.822 E10.2182
G1 X183.446 Y177.713 E10.25062
G1 X182.975 Y178.564 E10.28297
G1 X182.43 Y179.37 E10.31533
G1 X181.816 Y180.128 E10.34777
G1 X181.136 Y180.826 E10.38019
G1 X180.399 Y181.46 E10.41252
G1 X179.609 Y182.029 E10.4449
G1 X178.801 Y182.508 E10.47614
G1 X177.89 Y182.944 E10.50974
G1 X176.978 Y183.284 E10.54211
G1 X176.074 Y183.534 E10.5733
G1 X175.072 Y183.717 E10.60718
G1 X173.903 Y183.813 E10.64619
G1 X173.296 Y183.826 E10.66639
G1 X156.189 Y183.826 E11.23537
G1 X153.605 Y183.863 E11.32132
G1 X151.04 Y183.972 E11.40671
G1 X148.561 Y184.148 E11.48937
G1 X146.06 Y184.395 E11.57296
G1 X143.553 Y184.716 E11.65702
G1 X140.928 Y185.13 E11.74541
G1 X140.281 Y185.24 E11.76724
G1 X139.385 Y185.352 E11.79727
G1 X138.771 Y185.387 E11.81772
G1 X138.147 Y185.4 E11.83848
G1 X38.457 Y185.399 E15.15419
G1 X37.724 Y185.388 E15.17857
G1 X36.752 Y185.331 E15.21095
G1 X35.789 Y185.185 E15.24335
G1 X34.843 Y184.956 E15.27572
G1 X33.919 Y184.644 E15.30816
G1 X33.029 Y184.252 E15.3405
G1 X32.206 Y183.801 E15.37172
G1 X31.367 Y183.24 E15.40529
G1 X30.663 Y182.674 E15.43533
G1 X29.91 Y181.949 E15.4701
G1 X29.273 Y181.213 E15.50247
G1 X28.743 Y180.482 E15.5325
G1 X28.207 Y179.585 E15.56726
G1 X27.785 Y178.707 E15.59966
G1 X27.443 Y177.795 E15.63205
G1 X27.183 Y176.857 E15.66443
G1 X27.005 Y175.888 E15.6972
G1 X26.907 Y174.705 E15.73668
G1 X26.893 Y174.054 E15.75834
G1 X26.894 Y154.63 E16.40438
G1 X26.906 Y153.893 E16.4289
G1 X26.965 Y152.921 E16.46129
G1 X27.111 Y151.958 E16.49368
G1 X27.342 Y151.011 E16.5261
G1 X27.655 Y150.09 E16.55845
G1 X28.049 Y149.198 E16.59089
G1 X28.52 Y148.345 E16.6233
G1 X29.064 Y147.539 E16.65564
G1 X29.677 Y146.782 E16.68804
G1 X30.352 Y146.086 E16.72028
G1 X30.962 Y145.551 E16.74727
G1 X31.88 Y144.81 E16.78651
G1 X33.879 Y143.146 E16.87302
G1 X35.761 Y141.487 E16.95646
G1 X37.623 Y139.752 E17.04111
G1 X39.382 Y138.014 E17.12336
G1 X41.148 Y136.17 E17.20828
G1 X42.829 Y134.312 E17.29161
G1 X44.482 Y132.378 E17.37623
G1 X46.051 Y130.434 E17.45932
G1 X47.554 Y128.457 E17.54192
G1 X49.041 Y126.386 E17.62672
G1 X50.434 Y124.323 E17.70951
G1 X51.782 Y122.199 E17.79318
G1 X53.083 Y120.015 E17.87774
G1 X54.305 Y117.829 E17.96103
G1 X55.475 Y115.585 E18.0452
G1 X56.575 Y113.322 E18.12889
G1 X57.613 Y111.029 E18.21261
G1 X58.582 Y108.711 E18.29617
G1 X59.502 Y106.321 E18.38135
G1 X60.328 Y103.98 E18.46391
G1 X61.094 Y101.593 E18.54729
G1 X61.799 Y99.167 E18.63132
G1 X62.438 Y96.713 E18.71566
G1 X62.998 Y94.279 E18.79873
G1 X63.497 Y91.789 E18.8832
G1 X63.916 Y89.344 E18.9657
G1 X64.275 Y86.819 E19.05053
G1 X64.554 Y84.367 E19.13261
G1 X64.77 Y81.848 E19.2167
G1 X64.911 Y79.33 E19.30058
G1 X64.984 Y76.773 E19.38566
G1 X64.993 Y75.466 E19.42913
G1 X64.994 Y47.938 E20.34472
G1 X65.006 Y47.214 E20.3688
G1 X65.065 Y46.24 E20.40126
G1 X65.212 Y45.279 E20.43359
G1 X65.443 Y44.332 E20.46601
G1 X65.743 Y43.444 E20.49719
G1 X66.149 Y42.519 E20.53079
G1 X66.584 Y41.727 E20.56084
G0 F6000 X66.935 Y41.92
G1 F1200 X67.477 Y41.112 E20.5932
G1 X68.067 Y40.382 E20.62442
G1 X68.72 Y39.708 E20.65563
G1 X69.429 Y39.094 E20.68683
G1 X70.191 Y38.544 E20.71808
G1 X70.967 Y38.082 E20.74812
G1 X71.844 Y37.66 E20.78049
G1 X72.722 Y37.33 E20.81169
G1 X73.627 Y37.079 E20.84292
G1 X74.554 Y36.909 E20.87427
G1 X75.682 Y36.814 E20.91192
G1 X76.314 Y36.8 E20.93295
G1 X93.418 Y36.8 E21.50183
G1 X96.013 Y36.763 E21.58815
G1 X98.578 Y36.654 E21.67354
G1 X101.071 Y36.477 E21.75666
G1 X103.592 Y36.228 E21.84092
G1 X106.099 Y35.907 E21.92498
G1 X108.735 Y35.491 E22.01374
G1 X109.37 Y35.383 E22.03517
G1 X110.266 Y35.271 E22.0652
G1 X110.838 Y35.239 E22.08425
G1 X111.445 Y35.226 E22.10445
G1 X211.006 Y35.226 E25.41586
G1 X211.868 Y35.238 E25.44453
G1 X212.805 Y35.294 E25.47575
G1 X213.733 Y35.433 E25.50696
G1 X214.646 Y35.654 E25.53821
G1 X215.502 Y35.942 E25.56824
G1 X216.394 Y36.332 E25.60062
G1 X217.215 Y36.785 E25.63181
G1 X217.966 Y37.287 E25.66186
G1 X218.725 Y37.899 E25.69428
G1 X219.399 Y38.552 E25.7255
G1 X220.013 Y39.261 E25.75669
G1 X220.563 Y40.022 E25.78792
G1 X221.025 Y40.798 E25.81796
G1 X221.448 Y41.675 E25.85035
G1 X221.777 Y42.553 E25.88153
G1 X222.028 Y43.458 E25.91277
G1 X222.199 Y44.385 E25.94412
G1 X222.294 Y45.515 E25.98184
G1 X222.308 Y46.156 E26.00316
G1 X222.307 Y65.59 E26.64954
G1 X222.296 Y66.309 E26.67345
G1 X222.24 Y67.246 E26.70468
G1 X222.101 Y68.174 E26.73589
G1 X221.88 Y69.087 E26.76713
G1 X221.58 Y69.975 E26.7983
G1 X221.202 Y70.835 E26.82955
G1 X220.749 Y71.658 E26.86079
G1 X220.226 Y72.436 E26.89197
G1 X219.636 Y73.166 E26.92319
G1 X218.985 Y73.839 E26.95433
G1 X218.375 Y74.374 E26.98132
G1 X217.47 Y75.105 E27.02001
G1 X215.474 Y76.767 E27.1064
G1 X213.562 Y78.452 E27.19117
G1 X211.705 Y80.183 E27.2756
G1 X209.945 Y81.919 E27.35783
G1 X208.163 Y83.78 E27.44352
G1 X206.471 Y85.65 E27.5274
G1 X204.817 Y87.585 E27.61207
G1 X203.261 Y89.512 E27.69445
G1 X201.711 Y91.551 E27.77963
G1 X200.242 Y93.598 E27.86343
G1 X198.814 Y95.712 E27.94828
G1 X197.473 Y97.824 E28.03149
G1 X196.178 Y99.997 E28.11563
G1 X194.943 Y102.209 E28.19989
G1 X193.771 Y104.456 E28.28418
G1 X192.664 Y106.732 E28.36836
G1 X191.625 Y109.029 E28.45221
G1 X190.645 Y111.377 E28.53683
G1 X189.738 Y113.73 E28.62071
G1 X188.896 Y116.115 E28.70483
G1 X188.12 Y118.529 E28.78917
G1 X187.423 Y120.929 E28.87229
G1 X186.777 Y123.408 E28.9575
G1 X186.209 Y125.877 E29.04176
G1 X185.713 Y128.35 E29.12565
G1 X185.291 Y130.815 E29.20883
G1 X184.935 Y133.316 E29.29285
G1 X184.646 Y135.858 E29.37794
G1 X184.433 Y138.347 E29.46103
G1 X184.29 Y140.885 E29.54558
G1 X184.217 Y143.444 E29.63073
G1 X184.208 Y144.757 E29.6744
G1 X184.207 Y172.25 E30.58882
G1 X184.195 Y172.995 E30.6136
G1 X184.138 Y173.932 E30.64482
G1 X183.998 Y174.86 E30.67604
G1 X183.776 Y175.772 E30.70726
G1 X183.475 Y176.661 E30.73847
G1 X183.096 Y177.52 E30.7697
G1 X182.643 Y178.341 E30.80089
G1 X182.119 Y179.119 E30.83209
G1 X181.529 Y179.849 E30.86331
G1 X180.875 Y180.523 E30.89454
G1 X180.165 Y181.136 E30.92574
G1 X179.404 Y181.685 E30.95695
G1 X178.628 Y182.147 E30.98699
G1 X177.75 Y182.569 E31.01939
G1 X176.871 Y182.898 E31.05061
G1 X175.967 Y183.148 E31.0818
G1 X175.039 Y183.318 E31.11318
G1 X173.894 Y183.413 E31.15139
G1 X173.287 Y183.426 E31.17159
G1 X156.183 Y183.426 E31.74047
G1 X153.588 Y183.463 E31.82679
G1 X151.023 Y183.572 E31.91218
G1 X148.53 Y183.749 E31.9953
G1 X146.009 Y183.998 E32.07956
G1 X143.502 Y184.319 E32.16362
G1 X140.866 Y184.735 E32.25238
G1 X140.231 Y184.843 E32.27381
G1 X139.335 Y184.955 E32.30384
G1 X138.763 Y184.987 E32.32289
G1 X138.147 Y185 E32.34339
G1 X38.463 Y184.999 E35.65889
G1 X37.747 Y184.989 E35.68271
G1 X36.811 Y184.935 E35.71389
G1 X35.882 Y184.796 E35.74513
G1 X34.97 Y184.577 E35.77633
G1 X34.08 Y184.278 E35.80756
G1 X33.221 Y183.901 E35.83876
G1 X32.398 Y183.45 E35.86997
G1 X31.618 Y182.928 E35.90119
G1 X30.914 Y182.362 E35.93123
G1 X30.212 Y181.687 E35.96362
G1 X29.597 Y180.978 E35.99484
G1 X29.067 Y180.247 E36.02487
G1 X28.567 Y179.411 E36.05727
G1 X28.159 Y178.566 E36.08848
G1 X27.828 Y177.688 E36.11969
G1 X27.576 Y176.784 E36.1509
G1 X27.404 Y175.855 E36.18232
G1 X27.306 Y174.672 E36.22181
G1 X27.293 Y174.054 E36.24237
G1 X27.294 Y154.636 E36.88821
G1 X27.305 Y153.917 E36.91213
G1 X27.361 Y152.98 E36.94335
G1 X27.5 Y152.052 E36.97456
G1 X27.721 Y151.139 E37.0058
G1 X28.021 Y150.251 E37.03698
G1 X28.399 Y149.391 E37.06822
G1 X28.852 Y148.568 E37.09947
G1 X29.375 Y147.79 E37.13065
G1 X29.965 Y147.06 E37.16186
G1 X30.616 Y146.387 E37.19301
G1 X31.226 Y145.852 E37.21999
G1 X32.131 Y145.121 E37.25869
G1 X34.144 Y143.446 E37.34579
G1 X36.026 Y141.787 E37.42923
G1 X37.896 Y140.045 E37.51423
G1 X39.663 Y138.299 E37.59685
G1 X41.437 Y136.447 E37.68215
G1 X43.126 Y134.58 E37.76589
G1 X44.786 Y132.638 E37.85086
G1 X46.362 Y130.685 E37.93433
G1 X47.879 Y128.69 E38.01769
G1 X49.373 Y126.61 E38.10287
G1 X50.766 Y124.547 E38.18566
G1 X52.126 Y122.404 E38.27008
G1 X53.427 Y120.22 E38.35463
G1 X54.66 Y118.014 E38.43868
G1 X55.83 Y115.77 E38.52286
G1 X56.935 Y113.497 E38.60692
G1 X57.977 Y111.194 E38.69099
G1 X58.951 Y108.865 E38.77495
G1 X59.875 Y106.465 E38.86049
G1 X60.705 Y104.113 E38.94345
G1 X61.475 Y101.715 E39.02721
G1 X62.183 Y99.279 E39.11159
G1 X62.825 Y96.814 E39.19631
G1 X63.388 Y94.369 E39.27976
G1 X63.889 Y91.868 E39.36459
G1 X64.31 Y89.412 E39.44747
G1 X64.671 Y86.875 E39.5327
G1 X64.953 Y84.401 E39.61552
G1 X65.168 Y81.882 E39.69961
G1 X65.311 Y79.341 E39.78426
G1 X65.384 Y76.784 E39.86934
G1 X65.393 Y75.469 E39.91308
G1 X65.394 Y47.944 E40.82856
G1 X65.405 Y47.238 E40.85205
G1 X65.461 Y46.3 E40.8833
G1 X65.601 Y45.373 E40.91448
G1 X65.822 Y44.46 E40.94572
G1 X66.11 Y43.604 E40.97576
G1 X66.5 Y42.712 E41.00814
G1 X66.935 Y41.92 E41.0382
G0 F6000 X67.286 Y42.113
G1 F1200 X67.788 Y41.363 E41.06821
G1 X68.355 Y40.66 E41.09825
G1 X68.982 Y40.01 E41.12829
G1 X69.664 Y39.418 E41.15833
G1 X70.396 Y38.888 E41.18839
G1 X71.172 Y38.426 E41.21842
G1 X71.985 Y38.034 E41.24844
G1 X72.83 Y37.715 E41.27848
G1 X73.7 Y37.472 E41.30853
G1 X74.588 Y37.308 E41.33856
G1 X75.716 Y37.213 E41.37621
G1 X76.323 Y37.2 E41.39641
G1 X93.424 Y37.2 E41.96519
G1 X96.03 Y37.163 E42.05187
G1 X98.595 Y37.054 E42.13726
G1 X101.102 Y36.876 E42.22086
G1 X103.643 Y36.625 E42.30578
G1 X106.15 Y36.304 E42.38984
G1 X108.797 Y35.886 E42.47898
G1 X109.42 Y35.78 E42.49999
G1 X110.316 Y35.668 E42.53003
G1 X110.847 Y35.639 E42.54771
G1 X111.454 Y35.626 E42.56791
G1 X211.001 Y35.626 E45.87885
G1 X211.845 Y35.637 E45.90693
G1 X212.747 Y35.69 E45.93698
G1 X213.64 Y35.822 E45.96701
G1 X214.518 Y36.033 E45.99704
G1 X215.374 Y36.321 E46.02708
G1 X216.201 Y36.683 E46.0571
G1 X216.993 Y37.118 E46.08716
G1 X217.744 Y37.62 E46.1172
G1 X218.447 Y38.187 E46.14724
G1 X219.097 Y38.814 E46.17728
G1 X219.689 Y39.496 E46.20732
G1 X220.219 Y40.227 E46.23735
G1 X220.681 Y41.003 E46.26739
G1 X221.074 Y41.816 E46.29742
G1 X221.392 Y42.661 E46.32745
G1 X221.635 Y43.531 E46.35749
G1 X221.8 Y44.419 E46.38753
G1 X221.895 Y45.549 E46.42525
G1 X221.908 Y46.156 E46.44544
G1 X221.907 Y65.584 E47.09162
G1 X221.897 Y66.286 E47.11497
G1 X221.844 Y67.188 E47.14502
G1 X221.712 Y68.081 E47.17505
G1 X221.501 Y68.959 E47.20508
G1 X221.213 Y69.815 E47.23512
G1 X220.851 Y70.643 E47.26518
G1 X220.417 Y71.435 E47.29522
G1 X219.914 Y72.185 E47.32525
G1 X219.348 Y72.888 E47.35527
G1 X218.721 Y73.538 E47.38531
G1 X218.111 Y74.073 E47.41229
G1 X217.219 Y74.794 E47.45044
G1 X215.218 Y76.46 E47.53704
G1 X213.289 Y78.159 E47.62254
G1 X211.432 Y79.89 E47.70698
G1 X209.664 Y81.634 E47.78957
G1 X207.874 Y83.503 E47.87565
G1 X206.174 Y85.382 E47.95993
G1 X204.513 Y87.325 E48.04495
G1 X202.95 Y89.261 E48.1277
G1 X201.386 Y91.318 E48.21365
G1 X199.917 Y93.365 E48.29745
G1 X198.476 Y95.498 E48.38307
G1 X197.129 Y97.619 E48.46663
G1 X195.834 Y99.792 E48.55077
G1 X194.588 Y102.024 E48.63579
G1 X193.416 Y104.271 E48.72008
G1 X192.304 Y106.557 E48.80463
G1 X191.261 Y108.864 E48.88884
G1 X190.276 Y111.223 E48.97387
G1 X189.365 Y113.586 E49.0581
G1 X188.519 Y115.982 E49.14261
G1 X187.739 Y118.407 E49.22734
G1 X187.039 Y120.817 E49.31081
G1 X186.39 Y123.307 E49.39639
G1 X185.819 Y125.787 E49.48104
G1 X185.321 Y128.271 E49.5653
G1 X184.897 Y130.747 E49.64885
G1 X184.539 Y133.26 E49.73327
G1 X184.247 Y135.824 E49.8191
G1 X184.035 Y138.313 E49.90219
G1 X183.89 Y140.874 E49.9875
G1 X183.817 Y143.433 E50.07265
G1 X183.808 Y144.754 E50.11659
G1 X183.807 Y172.244 E51.03091
G1 X183.796 Y172.971 E51.05509
G1 X183.742 Y173.873 E51.08515
G1 X183.609 Y174.766 E51.11518
G1 X183.397 Y175.644 E51.14522
G1 X183.109 Y176.5 E51.17526
G1 X182.746 Y177.327 E51.2053
G1 X182.311 Y178.118 E51.23532
G1 X181.808 Y178.868 E51.26536
G1 X181.241 Y179.571 E51.2954
G1 X180.613 Y180.221 E51.32546
G1 X179.931 Y180.812 E51.35547
G1 X179.199 Y181.341 E51.38551
G1 X178.423 Y181.803 E51.41555
G1 X177.609 Y182.195 E51.4456
G1 X176.764 Y182.513 E51.47563
G1 X175.894 Y182.755 E51.50566
