;FLAVOR:Marlin
;TIME:12206
;Filament used: 8.27679m
;Layer height: 0.2
;MINX:29.876
;MINY:14.06
;MINZ:0.2
;MAXX:223.751
;MAXY:181.121
;MAXZ:3.6
;TARGET_MACHINE.NAME:Creality Ender-3
;Generated with Cura_SteamEngine 5.5.0
M140 S50
M105
M190 S50
M104 S200
M105
M109 S200
M82 ;absolute extrusion mode
; Ender 3 Custom Start G-code
G92 E0 ; Reset Extruder
G28 ; Home all axes
G1 Z2.0 F3000 ; Move Z Axis up little to prevent scratching of Heat Bed
G1 X0.1 Y20 Z0.3 F5000.0 ; Move to start position
G1 X0.1 Y200.0 Z0.3 F1500.0 E15 ; Draw the first line
G1 X0.4 Y200.0 Z0.3 F5000.0 ; Move to side a little
G1 X0.4 Y20 Z0.3 F1500.0 E30 ; Draw the second line
G92 E0 ; Reset Extruder
G1 Z2.0 F3000 ; Move Z Axis up little to prevent scratching of Heat Bed
G1 X5 Y20 Z0.3 F5000.0 ; Move over to prevent blob squish
G92 E0
G92 E0
G1 F2700 E-5
;LAYER_COUNT:18
;LAYER:0
M107
G0 F6000 X68.726 Y29.64 Z0.2
;TYPE:SKIRT
G1 F2700 E0
G1 F1200 X69.132 Y28.715 E0.0336
G1 X69.567 Y27.923 E0.06365
G1 X70.149 Y27.057 E0.09836
G1 X70.763 Y26.3 E0.13077
G1 X71.441 Y25.602 E0.16314
G1 X72.178 Y24.966 E0.19552
G1 X72.969 Y24.396 E0.22795
G1 X73.745 Y23.934 E0.25798
G1 X74.686 Y23.482 E0.2927
G1 X75.598 Y23.141 E0.32509
G1 X76.538 Y22.882 E0.35752
G1 X77.503 Y22.706 E0.39014
G1 X78.631 Y22.611 E0.42779
G1 X79.306 Y22.596 E0.45025
G1 X102.812 Y22.597 E1.23206
G1 X103.823 Y22.615 E1.26569
G1 X105.606 Y22.702 E1.32507
G1 X108.156 Y22.775 E1.40992
G1 X110.645 Y22.777 E1.4927
G1 X113.176 Y22.706 E1.57691
G1 X115.673 Y22.565 E1.6601
G1 X118.203 Y22.353 E1.74454
G1 X120.691 Y22.07 E1.82783
G1 X123.212 Y21.713 E1.91251
G1 X125.636 Y21.298 E1.99431
G1 X128.141 Y20.797 E2.07927
G1 X130.566 Y20.241 E2.16202
G1 X133.039 Y19.598 E2.24701
G1 X135.444 Y18.9 E2.3303
G1 X137.855 Y18.126 E2.41452
G1 X140.189 Y17.305 E2.49681
G1 X142.58 Y16.383 E2.58205
G1 X144.957 Y15.389 E2.66774
G1 X145.914 Y14.973 E2.70245
G1 X146.824 Y14.627 E2.73483
G1 X147.762 Y14.361 E2.76726
G1 X148.649 Y14.191 E2.79729
G1 X149.972 Y14.073 E2.84147
G1 X150.579 Y14.06 E2.86167
G1 X173.955 Y14.06 E3.63915
G1 X174.84 Y14.073 E3.66859
G1 X175.811 Y14.132 E3.70095
G1 X176.775 Y14.278 E3.73338
G1 X177.722 Y14.509 E3.7658
G1 X178.578 Y14.797 E3.79584
G1 X179.197 Y15.055 E3.81814
G1 X181.973 Y16.316 E3.91955
G1 X184.321 Y17.297 E4.00419
G1 X186.677 Y18.206 E4.08818
G1 X189.01 Y19.028 E4.17045
G1 X191.433 Y19.808 E4.25511
G1 X193.823 Y20.503 E4.3379
G1 X196.277 Y21.142 E4.42224
G1 X198.773 Y21.716 E4.50742
G1 X201.199 Y22.204 E4.58973
G1 X203.649 Y22.624 E4.6724
G1 X206.162 Y22.982 E4.75683
G1 X208.682 Y23.268 E4.84118
G1 X211.176 Y23.483 E4.92444
G1 X213.015 Y23.586 E4.9857
G1 X213.582 Y23.629 E5.00462
G1 X214.55 Y23.746 E5.03705
G1 X215.502 Y23.948 E5.06942
G1 X216.434 Y24.234 E5.10184
G1 X217.303 Y24.587 E5.13304
G1 X218.201 Y25.047 E5.1666
G1 X219.025 Y25.567 E5.199
G1 X219.797 Y26.158 E5.23134
G1 X220.517 Y26.815 E5.26376
G1 X221.152 Y27.506 E5.29497
G1 X221.765 Y28.307 E5.32852
G1 X222.287 Y29.13 E5.36093
G1 X222.733 Y29.996 E5.39333
G1 X223.101 Y30.898 E5.42573
G1 X223.387 Y31.828 E5.4581
G1 X223.591 Y32.78 E5.49048
G1 X223.703 Y33.676 E5.52051
G1 X223.738 Y34.287 E5.54087
G1 X223.751 Y34.91 E5.56159
G1 X223.75 Y54.355 E6.20834
G1 X223.738 Y55.092 E6.23285
G1 X223.679 Y56.064 E6.26524
G1 X223.533 Y57.027 E6.29764
G1 X223.302 Y57.974 E6.33006
G1 X222.989 Y58.895 E6.36241
G1 X222.595 Y59.787 E6.39484
G1 X222.124 Y60.64 E6.42725
G1 X221.58 Y61.446 E6.45959
G1 X220.967 Y62.203 E6.49199
G1 X220.292 Y62.899 E6.52424
G1 X219.682 Y63.434 E6.55123
G1 X218.764 Y64.175 E6.59046
G1 X216.773 Y65.833 E6.67664
G1 X214.878 Y67.504 E6.76067
G1 X213.021 Y69.235 E6.84511
G1 X211.269 Y70.963 E6.92695
G1 X209.495 Y72.816 E7.01228
G1 X207.811 Y74.677 E7.09575
G1 X206.164 Y76.604 E7.18007
G1 X204.615 Y78.522 E7.26206
G1 X203.079 Y80.543 E7.34649
G1 X201.61 Y82.59 E7.43029
G1 X200.195 Y84.685 E7.51438
G1 X198.86 Y86.788 E7.59723
G1 X197.565 Y88.961 E7.68136
G1 X196.341 Y91.153 E7.76487
G1 X195.169 Y93.4 E7.84916
G1 X194.067 Y95.666 E7.93296
G1 X193.032 Y97.953 E8.01646
G1 X192.056 Y100.292 E8.10075
G1 X191.154 Y102.633 E8.1842
G1 X190.316 Y105.007 E8.26793
G1 X189.544 Y107.41 E8.35188
G1 X188.85 Y109.8 E8.43465
G1 X188.207 Y112.268 E8.51948
G1 X187.642 Y114.726 E8.60336
G1 X187.148 Y117.188 E8.68688
G1 X186.728 Y119.641 E8.76966
G1 X186.374 Y122.131 E8.85331
G1 X186.088 Y124.651 E8.93766
G1 X185.874 Y127.14 E9.02075
G1 X185.733 Y129.655 E9.10453
G1 X185.66 Y132.214 E9.18968
G1 X185.651 Y133.519 E9.23308
G1 X185.65 Y161.008 E10.14737
G1 X185.637 Y161.777 E10.17295
G1 X185.577 Y162.75 E10.20538
G1 X185.43 Y163.711 E10.23771
G1 X185.199 Y164.659 E10.27016
G1 X184.897 Y165.548 E10.30139
G1 X184.49 Y166.47 E10.33491
G1 X184.019 Y167.322 E10.36729
G1 X183.474 Y168.129 E10.39968
G1 X182.883 Y168.859 E10.43092
G1 X182.18 Y169.584 E10.46451
G1 X181.443 Y170.218 E10.49684
G1 X180.652 Y170.787 E10.52925
G1 X179.813 Y171.284 E10.56169
G1 X178.999 Y171.675 E10.59172
G1 X178.022 Y172.043 E10.62644
G1 X177.118 Y172.293 E10.65764
G1 X176.116 Y172.476 E10.69152
G1 X174.97 Y172.571 E10.72977
G1 X174.321 Y172.585 E10.75136
G1 X150.815 Y172.584 E11.53317
G1 X149.804 Y172.566 E11.5668
G1 X148.021 Y172.479 E11.62617
G1 X145.471 Y172.406 E11.71102
G1 X142.982 Y172.404 E11.79381
G1 X140.451 Y172.475 E11.87802
G1 X137.954 Y172.616 E11.9612
G1 X135.424 Y172.828 E12.04565
G1 X132.936 Y173.111 E12.12893
G1 X130.415 Y173.468 E12.21362
G1 X127.987 Y173.883 E12.29554
G1 X125.486 Y174.384 E12.38038
G1 X123.061 Y174.94 E12.46313
G1 X120.588 Y175.583 E12.54812
G1 X118.183 Y176.281 E12.63141
G1 X115.772 Y177.055 E12.71563
G1 X113.446 Y177.874 E12.79765
G1 X111.047 Y178.798 E12.88315
G1 X108.67 Y179.792 E12.96885
G1 X107.713 Y180.208 E13.00355
G1 X106.803 Y180.554 E13.03593
G1 X105.865 Y180.82 E13.06836
G1 X104.978 Y180.99 E13.0984
G1 X103.654 Y181.108 E13.14261
G1 X103.03 Y181.121 E13.16337
G1 X79.496 Y181.12 E13.94611
G1 X78.752 Y181.106 E13.97086
G1 X77.78 Y181.043 E14.00326
G1 X76.819 Y180.895 E14.0356
G1 X75.873 Y180.662 E14.068
G1 X74.991 Y180.362 E14.09899
G1 X74.428 Y180.124 E14.11932
G1 X71.662 Y178.868 E14.22036
G1 X69.304 Y177.883 E14.30535
G1 X66.942 Y176.973 E14.38954
G1 X64.617 Y176.153 E14.47154
G1 X62.194 Y175.373 E14.5562
G1 X59.804 Y174.678 E14.63899
G1 X57.35 Y174.039 E14.72333
G1 X54.854 Y173.465 E14.80851
G1 X52.428 Y172.977 E14.89082
G1 X49.978 Y172.557 E14.9735
G1 X47.465 Y172.199 E15.05792
G1 X44.945 Y171.913 E15.14228
G1 X42.451 Y171.698 E15.22553
G1 X40.591 Y171.593 E15.2875
G1 X40.025 Y171.549 E15.30638
G1 X39.058 Y171.43 E15.33878
G1 X38.107 Y171.227 E15.37113
G1 X37.208 Y170.952 E15.40239
G1 X36.273 Y170.57 E15.43599
G1 X35.41 Y170.124 E15.4683
G1 X34.615 Y169.622 E15.49957
G1 X33.813 Y169.008 E15.53316
G1 X33.096 Y168.351 E15.56551
G1 X32.485 Y167.686 E15.59555
G1 X31.849 Y166.856 E15.63033
G1 X31.33 Y166.032 E15.66271
G1 X30.9 Y165.197 E15.69395
G1 X30.52 Y164.263 E15.72749
G1 X30.235 Y163.333 E15.75984
G1 X30.033 Y162.38 E15.79224
G1 X29.923 Y161.483 E15.8223
G1 X29.889 Y160.875 E15.84256
G1 X29.876 Y160.249 E15.86338
G1 X29.877 Y140.826 E16.50939
G1 X29.889 Y140.089 E16.53391
G1 X29.948 Y139.117 E16.5663
G1 X30.094 Y138.154 E16.59869
G1 X30.325 Y137.207 E16.63111
G1 X30.638 Y136.286 E16.66347
G1 X31.032 Y135.394 E16.6959
G1 X31.503 Y134.541 E16.72831
G1 X32.047 Y133.735 E16.76065
G1 X32.66 Y132.978 E16.79305
G1 X33.335 Y132.282 E16.8253
G1 X33.945 Y131.747 E16.85228
G1 X34.863 Y131.006 E16.89152
G1 X36.862 Y129.342 E16.97803
G1 X38.744 Y127.683 E17.06147
G1 X40.606 Y125.948 E17.14612
G1 X42.365 Y124.21 E17.22837
G1 X44.131 Y122.366 E17.31329
G1 X45.812 Y120.508 E17.39662
G1 X47.465 Y118.574 E17.48124
G1 X49.034 Y116.63 E17.56433
G1 X50.537 Y114.653 E17.64693
G1 X52.024 Y112.582 E17.73173
G1 X53.417 Y110.519 E17.81452
G1 X54.765 Y108.395 E17.8982
G1 X56.066 Y106.211 E17.98275
G1 X57.288 Y104.025 E18.06604
G1 X58.458 Y101.781 E18.15021
G1 X59.56 Y99.515 E18.23402
G1 X60.596 Y97.225 E18.31762
G1 X61.565 Y94.907 E18.40118
G1 X62.485 Y92.517 E18.48636
G1 X63.311 Y90.176 E18.56893
G1 X64.077 Y87.789 E18.65231
G1 X64.782 Y85.363 E18.73633
G1 X65.421 Y82.909 E18.82067
G1 X65.981 Y80.475 E18.90374
G1 X66.48 Y77.985 E18.98821
G1 X66.899 Y75.54 E19.07072
G1 X67.258 Y73.015 E19.15554
G1 X67.537 Y70.563 E19.23762
G1 X67.753 Y68.044 E19.32171
G1 X67.894 Y65.526 E19.40559
G1 X67.967 Y62.969 E19.49067
G1 X67.976 Y61.662 E19.53414
G1 X67.977 Y34.134 E20.44973
G1 X67.989 Y33.41 E20.47381
G1 X68.048 Y32.436 E20.50627
G1 X68.195 Y31.475 E20.5386
G1 X68.426 Y30.528 E20.57102
G1 X68.726 Y29.64 E20.6022
G0 F6000 X69.093 Y29.8
G1 F1200 X69.483 Y28.908 E20.63458
G1 X69.918 Y28.116 E20.66463
G1 X70.46 Y27.308 E20.69699
G1 X71.05 Y26.578 E20.72821
G1 X71.703 Y25.904 E20.75942
G1 X72.412 Y25.29 E20.79062
G1 X73.174 Y24.74 E20.82188
G1 X73.95 Y24.278 E20.85191
G1 X74.827 Y23.856 E20.88428
G1 X75.705 Y23.526 E20.91548
G1 X76.61 Y23.275 E20.94672
G1 X77.537 Y23.105 E20.97806
G1 X78.665 Y23.01 E21.01571
G1 X79.306 Y22.996 E21.03704
G1 X102.805 Y22.997 E21.81862
G1 X103.804 Y23.015 E21.85185
G1 X105.587 Y23.102 E21.91122
G1 X108.145 Y23.175 E21.99634
G1 X110.656 Y23.177 E22.07985
G1 X113.187 Y23.106 E22.16407
G1 X115.707 Y22.964 E22.24802
G1 X118.237 Y22.751 E22.33246
G1 X120.747 Y22.466 E22.41648
G1 X123.268 Y22.109 E22.50117
G1 X125.717 Y21.69 E22.58381
G1 X128.23 Y21.187 E22.66905
G1 X130.655 Y20.631 E22.7518
G1 X133.14 Y19.985 E22.83719
G1 X135.566 Y19.281 E22.92121
G1 X137.977 Y18.507 E23.00543
G1 X140.329 Y17.679 E23.08837
G1 X142.724 Y16.756 E23.17374
G1 X145.117 Y15.756 E23.26
G1 X146.057 Y15.347 E23.29409
G1 X146.934 Y15.012 E23.32532
G1 X147.837 Y14.754 E23.35655
G1 X148.724 Y14.584 E23.38659
G1 X149.981 Y14.473 E23.42856
G1 X150.588 Y14.46 E23.44876
G1 X173.949 Y14.46 E24.22575
G1 X174.816 Y14.472 E24.25459
G1 X175.752 Y14.528 E24.28577
G1 X176.681 Y14.667 E24.31701
G1 X177.594 Y14.888 E24.34826
G1 X178.45 Y15.176 E24.3783
G1 X179.032 Y15.419 E24.39927
G1 X181.819 Y16.685 E24.50109
G1 X184.177 Y17.67 E24.58608
G1 X186.537 Y18.58 E24.67021
G1 X188.887 Y19.409 E24.75309
G1 X191.31 Y20.189 E24.83775
G1 X193.715 Y20.888 E24.92105
G1 X196.187 Y21.532 E25.00602
G1 X198.683 Y22.106 E25.0912
G1 X201.124 Y22.597 E25.17401
G1 X203.593 Y23.02 E25.25733
G1 X206.106 Y23.378 E25.34176
G1 X208.648 Y23.667 E25.42685
G1 X211.142 Y23.881 E25.5101
G1 X212.985 Y23.985 E25.5715
G1 X213.535 Y24.026 E25.58984
G1 X214.467 Y24.137 E25.62106
G1 X215.385 Y24.331 E25.65227
G1 X216.283 Y24.605 E25.6835
G1 X217.152 Y24.958 E25.71469
G1 X217.988 Y25.385 E25.74591
G1 X218.782 Y25.885 E25.77712
G1 X219.528 Y26.454 E25.80833
G1 X220.222 Y27.086 E25.83955
G1 X220.857 Y27.777 E25.87076
G1 X221.428 Y28.522 E25.90198
G1 X221.932 Y29.314 E25.93321
G1 X222.363 Y30.148 E25.96443
G1 X222.719 Y31.016 E25.99563
G1 X222.996 Y31.912 E26.02683
G1 X223.194 Y32.83 E26.05806
G1 X223.306 Y33.726 E26.08809
G1 X223.338 Y34.295 E26.10705
G1 X223.351 Y34.91 E26.12751
G1 X223.35 Y54.349 E26.77405
G1 X223.339 Y55.068 E26.79797
G1 X223.283 Y56.005 E26.82919
G1 X223.144 Y56.933 E26.8604
G1 X222.923 Y57.846 E26.89164
G1 X222.623 Y58.734 E26.92282
G1 X222.245 Y59.594 E26.95406
G1 X221.792 Y60.417 E26.98531
G1 X221.269 Y61.195 E27.01649
G1 X220.679 Y61.925 E27.04771
G1 X220.028 Y62.598 E27.07885
G1 X219.418 Y63.133 E27.10583
G1 X218.513 Y63.864 E27.14453
G1 X216.517 Y65.526 E27.23092
G1 X214.605 Y67.211 E27.31568
G1 X212.748 Y68.942 E27.40012
G1 X210.988 Y70.678 E27.48234
G1 X209.206 Y72.539 E27.56804
G1 X207.514 Y74.409 E27.65191
G1 X205.86 Y76.344 E27.73658
G1 X204.304 Y78.271 E27.81896
G1 X202.754 Y80.31 E27.90415
G1 X201.285 Y82.357 E27.98795
G1 X199.857 Y84.471 E28.0728
G1 X198.516 Y86.583 E28.15601
G1 X197.221 Y88.756 E28.24014
G1 X195.986 Y90.968 E28.3244
G1 X194.814 Y93.215 E28.40869
G1 X193.707 Y95.491 E28.49287
G1 X192.668 Y97.788 E28.57672
G1 X191.687 Y100.138 E28.66142
G1 X190.781 Y102.489 E28.74522
G1 X189.939 Y104.874 E28.82935
G1 X189.163 Y107.288 E28.91368
G1 X188.466 Y109.688 E28.99681
G1 X187.82 Y112.167 E29.08201
G1 X187.252 Y114.636 E29.16627
G1 X186.756 Y117.109 E29.25017
G1 X186.334 Y119.574 E29.33334
G1 X185.978 Y122.075 E29.41737
G1 X185.689 Y124.617 E29.50246
G1 X185.476 Y127.106 E29.58555
G1 X185.333 Y129.644 E29.67009
G1 X185.26 Y132.203 E29.75524
G1 X185.251 Y133.516 E29.79891
G1 X185.25 Y161.002 E30.7131
G1 X185.238 Y161.753 E30.73808
G1 X185.181 Y162.69 E30.7693
G1 X185.041 Y163.617 E30.80049
G1 X184.82 Y164.53 E30.83173
G1 X184.518 Y165.419 E30.86296
G1 X184.14 Y166.277 E30.89414
G1 X183.687 Y167.099 E30.92536
G1 X183.163 Y167.877 E30.95656
G1 X182.572 Y168.607 E30.9878
G1 X181.919 Y169.281 E31.01901
G1 X181.209 Y169.894 E31.05021
G1 X180.448 Y170.443 E31.08142
G1 X179.64 Y170.923 E31.11268
G1 X178.826 Y171.314 E31.14271
G1 X177.915 Y171.657 E31.17509
G1 X177.011 Y171.907 E31.20628
G1 X176.083 Y172.077 E31.23766
G1 X174.937 Y172.172 E31.27591
G1 X174.321 Y172.185 E31.2964
G1 X150.822 Y172.184 E32.07798
G1 X149.823 Y172.166 E32.11121
G1 X148.04 Y172.079 E32.17059
G1 X145.482 Y172.006 E32.2557
G1 X142.971 Y172.004 E32.33922
G1 X140.44 Y172.075 E32.42343
G1 X137.92 Y172.217 E32.50738
G1 X135.39 Y172.43 E32.59183
G1 X132.88 Y172.715 E32.67585
G1 X130.359 Y173.072 E32.76053
G1 X127.908 Y173.491 E32.84323
G1 X125.397 Y173.994 E32.92841
G1 X122.972 Y174.55 E33.01116
G1 X120.487 Y175.196 E33.09656
G1 X118.061 Y175.9 E33.18057
G1 X115.65 Y176.674 E33.2648
G1 X113.302 Y177.501 E33.34759
G1 X110.903 Y178.425 E33.4331
G1 X108.51 Y179.425 E33.51936
G1 X107.57 Y179.834 E33.55346
G1 X106.693 Y180.169 E33.58468
G1 X105.79 Y180.427 E33.61592
G1 X104.903 Y180.597 E33.64595
G1 X103.646 Y180.708 E33.68792
G1 X103.03 Y180.721 E33.70842
G1 X79.503 Y180.72 E34.49093
G1 X78.777 Y180.707 E34.51508
G1 X77.841 Y180.648 E34.54627
G1 X76.914 Y180.506 E34.57746
G1 X76.002 Y180.283 E34.60869
G1 X75.12 Y179.983 E34.63968
G1 X74.593 Y179.76 E34.65871
G1 X71.816 Y178.499 E34.76015
G1 X69.458 Y177.514 E34.84515
G1 X67.086 Y176.6 E34.92969
G1 X64.74 Y175.772 E35.01244
G1 X62.317 Y174.992 E35.0971
G1 X59.912 Y174.293 E35.1804
G1 X57.44 Y173.649 E35.26536
G1 X54.944 Y173.075 E35.35055
G1 X52.503 Y172.584 E35.43336
G1 X50.034 Y172.161 E35.51668
G1 X47.521 Y171.803 E35.6011
G1 X44.979 Y171.514 E35.6862
G1 X42.485 Y171.3 E35.76945
G1 X40.622 Y171.194 E35.83152
G1 X40.073 Y171.152 E35.84983
G1 X39.141 Y171.039 E35.88105
G1 X38.224 Y170.844 E35.91224
G1 X37.325 Y170.569 E35.9435
G1 X36.456 Y170.214 E35.97473
G1 X35.623 Y169.785 E36.00589
G1 X34.858 Y169.304 E36.03595
G1 X34.083 Y168.713 E36.06836
G1 X33.391 Y168.08 E36.09956
G1 X32.78 Y167.415 E36.12959
G1 X32.187 Y166.642 E36.162
G1 X31.686 Y165.849 E36.19319
G1 X31.256 Y165.014 E36.22443
G1 X30.902 Y164.145 E36.25564
G1 X30.626 Y163.249 E36.28682
G1 X30.43 Y162.331 E36.31805
G1 X30.32 Y161.434 E36.3481
G1 X30.289 Y160.867 E36.36699
G1 X30.276 Y160.249 E36.38755
G1 X30.277 Y140.832 E37.03336
G1 X30.288 Y140.113 E37.05728
G1 X30.344 Y139.176 E37.0885
G1 X30.483 Y138.248 E37.11971
G1 X30.704 Y137.335 E37.15095
G1 X31.004 Y136.447 E37.18213
G1 X31.382 Y135.587 E37.21337
G1 X31.835 Y134.764 E37.24462
G1 X32.358 Y133.986 E37.2758
G1 X32.948 Y133.256 E37.30702
G1 X33.599 Y132.583 E37.33816
G1 X34.209 Y132.048 E37.36514
G1 X35.114 Y131.317 E37.40384
G1 X37.127 Y129.642 E37.49094
G1 X39.009 Y127.983 E37.57438
G1 X40.879 Y126.241 E37.65938
G1 X42.646 Y124.495 E37.74201
G1 X44.42 Y122.643 E37.8273
G1 X46.109 Y120.776 E37.91104
G1 X47.769 Y118.834 E37.99601
G1 X49.345 Y116.881 E38.07948
G1 X50.862 Y114.886 E38.16284
