;FLAVOR:Marlin
;TIME:15342
;Filament used: 10.61m
;Layer height: 0.2
;MINX:10.591
;MINY:20.873
;MINZ:0.2
;MAXX:204.333
;MAXY:220.556
;MAXZ:4.6
;TARGET_MACHINE.NAME:Creality Ender-3
;Generated with Cura_SteamEngine 5.5.0
M140 S50
M105
M190 S50
M104 S200
M105
M109 S200
M82 ;absolute extrusion mode
; Ender 3 Custom Start G-code
G92 E0 ; Reset Extruder
G28 ; Home all axes
G1 Z2.0 F3000 ; Move Z Axis up little to prevent scratching of Heat Bed
G1 X0.1 Y20 Z0.3 F5000.0 ; Move to start position
G1 X0.1 Y200.0 Z0.3 F1500.0 E15 ; Draw the first line
G1 X0.4 Y200.0 Z0.3 F5000.0 ; Move to side a little
G1 X0.4 Y20 Z0.3 F1500.0 E30 ; Draw the second line
G92 E0 ; Reset Extruder
G1 Z2.0 F3000 ; Move Z Axis up little to prevent scratching of Heat Bed
G1 X5 Y20 Z0.3 F5000.0 ; Move over to prevent blob squish
G92 E0
G92 E0
G1 F2700 E-5
;LAYER_COUNT:23
;LAYER:0
M107
G0 F6000 X51.457 Y49.883 Z0.2
;TYPE:SKIRT
G1 F2700 E0
G1 F1200 X52.159 Y49.158 E0.03357
G1 X52.868 Y48.545 E0.06474
G1 X53.687 Y47.954 E0.09833
G1 X54.463 Y47.492 E0.12837
G1 X55.405 Y47.039 E0.16313
G1 X56.317 Y46.699 E0.19551
G1 X57.221 Y46.449 E0.2267
G1 X58.223 Y46.265 E0.26059
G1 X59.396 Y46.169 E0.29973
G1 X60.003 Y46.156 E0.31992
G1 X64.309 Y46.156 E0.46314
G1 X66.893 Y46.119 E0.5491
G1 X69.458 Y46.01 E0.63448
G1 X71.937 Y45.834 E0.71714
G1 X74.438 Y45.587 E0.80073
G1 X76.946 Y45.266 E0.88483
G1 X79.429 Y44.876 E0.96843
G1 X81.869 Y44.422 E1.05097
G1 X84.364 Y43.885 E1.13586
G1 X86.81 Y43.286 E1.21962
G1 X89.232 Y42.621 E1.30315
G1 X91.623 Y41.888 E1.38633
G1 X94.025 Y41.077 E1.47065
G1 X96.396 Y40.203 E1.5547
G1 X98.681 Y39.285 E1.6366
G1 X101.052 Y38.253 E1.72261
G1 X103.338 Y37.182 E1.80657
G1 X105.54 Y36.073 E1.88858
G1 X107.778 Y34.863 E1.9732
G1 X109.946 Y33.613 E2.05643
G1 X112.11 Y32.282 E2.14093
G1 X114.202 Y30.912 E2.2241
G1 X116.271 Y29.471 E2.30796
G1 X118.297 Y27.974 E2.39175
G1 X120.258 Y26.437 E2.47462
G1 X122.232 Y24.797 E2.55998
G1 X123.709 Y23.519 E2.62494
G1 X124.493 Y22.91 E2.65796
G1 X125.311 Y22.382 E2.69034
G1 X126.141 Y21.943 E2.72157
G1 X127.073 Y21.554 E2.75516
G1 X128 Y21.261 E2.78749
G1 X128.951 Y21.048 E2.81991
G1 X129.846 Y20.929 E2.84994
G1 X130.522 Y20.888 E2.87246
G1 X131.161 Y20.873 E2.89372
G1 X154.537 Y20.873 E3.67121
G1 X155.421 Y20.886 E3.70062
G1 X156.393 Y20.945 E3.733
G1 X157.356 Y21.091 E3.7654
G1 X158.303 Y21.322 E3.79782
G1 X159.159 Y21.61 E3.82786
G1 X160.115 Y22.028 E3.86256
G1 X160.966 Y22.498 E3.8949
G1 X161.717 Y23 E3.92494
G1 X162.53 Y23.655 E3.95967
G1 X163.168 Y24.268 E3.98909
G1 X164 Y25.136 E4.02908
G1 X165.823 Y26.984 E4.11542
G1 X167.67 Y28.752 E4.20046
G1 X169.511 Y30.419 E4.28307
G1 X171.447 Y32.072 E4.36774
G1 X173.373 Y33.628 E4.45009
G1 X175.391 Y35.163 E4.53442
G1 X177.426 Y36.623 E4.61772
G1 X179.535 Y38.047 E4.70236
G1 X181.648 Y39.388 E4.7856
G1 X183.81 Y40.677 E4.86931
G1 X185.992 Y41.896 E4.95245
G1 X188.247 Y43.073 E5.03705
G1 X190.485 Y44.161 E5.11981
G1 X192.811 Y45.213 E5.20472
G1 X195.122 Y46.179 E5.28803
G1 X197.335 Y47.038 E5.36699
G1 X198.193 Y47.417 E5.39818
G1 X199.077 Y47.905 E5.43177
G1 X199.882 Y48.45 E5.4641
G1 X200.639 Y49.065 E5.49654
G1 X201.336 Y49.744 E5.52891
G1 X201.971 Y50.482 E5.56129
G1 X202.52 Y51.244 E5.59252
G1 X203.035 Y52.113 E5.62612
G1 X203.454 Y52.993 E5.65854
G1 X203.771 Y53.838 E5.68856
G1 X204.049 Y54.843 E5.72324
G1 X204.225 Y55.81 E5.75593
G1 X204.319 Y56.949 E5.79394
G1 X204.333 Y57.597 E5.8155
G1 X204.332 Y77.043 E6.46228
G1 X204.32 Y77.78 E6.48679
G1 X204.261 Y78.752 E6.51918
G1 X204.115 Y79.715 E6.55158
G1 X203.884 Y80.662 E6.584
G1 X203.571 Y81.583 E6.61635
G1 X203.177 Y82.475 E6.64878
G1 X202.706 Y83.328 E6.68119
G1 X202.162 Y84.134 E6.71353
G1 X201.549 Y84.891 E6.74593
G1 X200.874 Y85.587 E6.77818
G1 X200.264 Y86.122 E6.80517
G1 X199.346 Y86.863 E6.8444
G1 X197.355 Y88.521 E6.93058
G1 X195.46 Y90.192 E7.01461
G1 X193.603 Y91.923 E7.09905
G1 X191.851 Y93.651 E7.18089
G1 X190.077 Y95.504 E7.26622
G1 X188.393 Y97.365 E7.34969
G1 X186.746 Y99.292 E7.43401
G1 X185.197 Y101.21 E7.516
G1 X183.661 Y103.231 E7.60043
G1 X182.192 Y105.278 E7.68423
G1 X180.777 Y107.373 E7.76832
G1 X179.442 Y109.476 E7.85117
G1 X178.147 Y111.649 E7.9353
G1 X176.923 Y113.841 E8.01881
G1 X175.751 Y116.088 E8.1031
G1 X174.649 Y118.354 E8.1869
G1 X173.614 Y120.641 E8.2704
G1 X172.638 Y122.98 E8.35469
G1 X171.736 Y125.321 E8.43814
G1 X170.898 Y127.695 E8.52187
G1 X170.126 Y130.098 E8.60582
G1 X169.438 Y132.465 E8.6878
G1 X168.789 Y134.956 E8.77342
G1 X168.224 Y137.414 E8.8573
G1 X167.73 Y139.876 E8.94082
G1 X167.31 Y142.329 E9.0236
G1 X166.956 Y144.819 E9.10725
G1 X166.67 Y147.339 E9.1916
G1 X166.456 Y149.828 E9.27469
G1 X166.315 Y152.343 E9.35847
G1 X166.242 Y154.902 E9.44362
G1 X166.233 Y156.207 E9.48702
G1 X166.232 Y183.703 E10.40155
G1 X166.219 Y184.466 E10.42693
G1 X166.159 Y185.439 E10.45935
G1 X166.012 Y186.402 E10.49175
G1 X165.78 Y187.347 E10.52411
G1 X165.466 Y188.269 E10.55651
G1 X165.071 Y189.16 E10.58893
G1 X164.6 Y190.011 E10.62128
G1 X164.055 Y190.817 E10.65364
G1 X163.441 Y191.575 E10.68608
G1 X162.761 Y192.273 E10.71849
G1 X162.024 Y192.907 E10.75083
G1 X161.234 Y193.476 E10.78321
G1 X160.426 Y193.955 E10.81445
G1 X159.515 Y194.391 E10.84804
G1 X158.603 Y194.731 E10.88042
G1 X157.699 Y194.981 E10.91161
G1 X156.697 Y195.164 E10.94549
G1 X155.528 Y195.26 E10.9845
G1 X154.921 Y195.273 E11.00469
G1 X150.615 Y195.273 E11.14791
G1 X148.031 Y195.31 E11.23387
G1 X145.466 Y195.419 E11.31925
G1 X142.987 Y195.595 E11.40191
G1 X140.486 Y195.842 E11.4855
G1 X137.978 Y196.163 E11.5696
G1 X135.495 Y196.553 E11.6532
G1 X133.052 Y197.007 E11.73584
G1 X130.56 Y197.544 E11.82063
G1 X128.114 Y198.143 E11.90439
G1 X125.692 Y198.808 E11.98792
G1 X123.301 Y199.541 E12.0711
G1 X120.899 Y200.352 E12.15542
G1 X118.528 Y201.226 E12.23947
G1 X116.243 Y202.144 E12.32137
G1 X113.872 Y203.176 E12.40738
G1 X111.586 Y204.247 E12.49134
G1 X109.384 Y205.356 E12.57335
G1 X107.146 Y206.566 E12.65797
G1 X104.978 Y207.816 E12.7412
G1 X102.814 Y209.147 E12.8257
G1 X100.722 Y210.517 E12.90887
G1 X98.653 Y211.958 E12.99273
G1 X96.627 Y213.455 E13.07652
G1 X94.657 Y214.999 E13.15977
G1 X92.711 Y216.614 E13.24388
G1 X92.109 Y217.144 E13.27055
G1 X91.203 Y217.92 E13.31023
G1 X90.463 Y218.498 E13.34146
G1 X89.615 Y219.046 E13.37504
G1 X88.785 Y219.485 E13.40627
G1 X87.853 Y219.874 E13.43986
G1 X86.925 Y220.168 E13.47224
G1 X85.975 Y220.379 E13.50461
G1 X85.051 Y220.502 E13.53561
G1 X84.402 Y220.541 E13.55723
G1 X83.745 Y220.556 E13.57909
G1 X60.241 Y220.555 E14.36084
G1 X59.504 Y220.543 E14.38535
G1 X58.532 Y220.484 E14.41774
G1 X57.569 Y220.338 E14.45014
G1 X56.622 Y220.107 E14.48256
G1 X55.701 Y219.794 E14.51491
G1 X54.809 Y219.4 E14.54735
G1 X53.956 Y218.929 E14.57975
G1 X53.15 Y218.385 E14.6121
G1 X52.395 Y217.774 E14.6444
G1 X51.785 Y217.189 E14.67251
G1 X50.932 Y216.302 E14.71344
G1 X49.085 Y214.429 E14.80093
G1 X47.268 Y212.69 E14.88458
G1 X45.384 Y210.984 E14.96912
G1 X43.475 Y209.355 E15.05259
G1 X41.524 Y207.779 E15.136
G1 X39.559 Y206.285 E15.21811
G1 X37.484 Y204.796 E15.30305
G1 X35.399 Y203.388 E15.38673
G1 X33.28 Y202.044 E15.47019
G1 X31.119 Y200.755 E15.55388
G1 X28.911 Y199.522 E15.63799
G1 X26.67 Y198.352 E15.72208
G1 X24.402 Y197.25 E15.80594
G1 X22.152 Y196.232 E15.88808
G1 X19.777 Y195.241 E15.97367
G1 X17.584 Y194.388 E16.05194
G1 X16.726 Y194.008 E16.08315
G1 X15.843 Y193.52 E16.1167
G1 X15.036 Y192.975 E16.14909
G1 X14.334 Y192.406 E16.17915
G1 X13.584 Y191.679 E16.21389
G1 X12.949 Y190.941 E16.24627
G1 X12.401 Y190.179 E16.27749
G1 X11.887 Y189.31 E16.31107
G1 X11.468 Y188.43 E16.34349
G1 X11.129 Y187.519 E16.37582
G1 X10.888 Y186.648 E16.40587
G1 X10.698 Y185.611 E16.44094
G1 X10.604 Y184.445 E16.47985
G1 X10.591 Y183.82 E16.50064
G1 X10.592 Y164.386 E17.14702
G1 X10.604 Y163.649 E17.17153
G1 X10.663 Y162.677 E17.20392
G1 X10.809 Y161.714 E17.23631
G1 X11.04 Y160.767 E17.26874
G1 X11.353 Y159.846 E17.30109
G1 X11.747 Y158.954 E17.33352
G1 X12.218 Y158.101 E17.36593
G1 X12.762 Y157.295 E17.39827
G1 X13.375 Y156.538 E17.43067
G1 X14.05 Y155.842 E17.46292
G1 X14.66 Y155.307 E17.4899
G1 X15.578 Y154.566 E17.52914
G1 X17.577 Y152.902 E17.61565
G1 X19.459 Y151.243 E17.6991
G1 X21.321 Y149.508 E17.78374
G1 X23.08 Y147.77 E17.86599
G1 X24.846 Y145.926 E17.95091
G1 X26.527 Y144.068 E18.03425
G1 X28.18 Y142.134 E18.11887
G1 X29.749 Y140.19 E18.20196
G1 X31.252 Y138.213 E18.28456
G1 X32.739 Y136.142 E18.36935
G1 X34.132 Y134.079 E18.45215
G1 X35.48 Y131.955 E18.53582
G1 X36.781 Y129.771 E18.62037
G1 X38.003 Y127.585 E18.70367
G1 X39.173 Y125.341 E18.78784
G1 X40.273 Y123.078 E18.87153
G1 X41.311 Y120.785 E18.95524
G1 X42.28 Y118.467 E19.0388
G1 X43.2 Y116.077 E19.12398
G1 X44.026 Y113.736 E19.20655
G1 X44.792 Y111.349 E19.28993
G1 X45.497 Y108.923 E19.37395
G1 X46.136 Y106.469 E19.4583
G1 X46.696 Y104.035 E19.54137
G1 X47.195 Y101.545 E19.62583
G1 X47.614 Y99.1 E19.70834
G1 X47.973 Y96.575 E19.79316
G1 X48.252 Y94.123 E19.87524
G1 X48.468 Y91.604 E19.95933
G1 X48.609 Y89.086 E20.04321
G1 X48.682 Y86.529 E20.1283
G1 X48.691 Y85.222 E20.17177
G1 X48.692 Y57.674 E21.08802
G1 X48.704 Y56.965 E21.1116
G1 X48.764 Y55.995 E21.14393
G1 X48.91 Y55.03 E21.17639
G1 X49.142 Y54.085 E21.20875
G1 X49.456 Y53.163 E21.24115
G1 X49.85 Y52.273 E21.27352
G1 X50.321 Y51.42 E21.30593
G1 X50.866 Y50.613 E21.33832
G1 X51.457 Y49.883 E21.36956
G0 F6000 X51.768 Y50.135
G1 F1200 X52.421 Y49.461 E21.40077
G1 X53.13 Y48.848 E21.43194
G1 X53.892 Y48.298 E21.4632
G1 X54.668 Y47.836 E21.49324
G1 X55.545 Y47.414 E21.52561
G1 X56.424 Y47.085 E21.55682
G1 X57.328 Y46.835 E21.58802
G1 X58.256 Y46.664 E21.6194
G1 X59.405 Y46.569 E21.65775
G1 X60.012 Y46.556 E21.67794
G1 X64.315 Y46.556 E21.82106
G1 X66.91 Y46.519 E21.90738
G1 X69.475 Y46.41 E21.99277
G1 X71.968 Y46.233 E22.0759
G1 X74.489 Y45.984 E22.16015
G1 X76.997 Y45.663 E22.24425
G1 X79.491 Y45.271 E22.32822
G1 X81.955 Y44.813 E22.41158
G1 X84.459 Y44.274 E22.49677
G1 X86.905 Y43.675 E22.58053
G1 X89.338 Y43.006 E22.66445
G1 X91.751 Y42.267 E22.74839
G1 X94.153 Y41.456 E22.83271
G1 X96.545 Y40.574 E22.9175
G1 X98.841 Y39.652 E22.9998
G1 X101.212 Y38.62 E23.0858
G1 X103.508 Y37.544 E23.17014
G1 X105.73 Y36.425 E23.25288
G1 X107.978 Y35.21 E23.33787
G1 X110.146 Y33.96 E23.42111
G1 X112.32 Y32.623 E23.506
G1 X114.421 Y31.247 E23.58953
G1 X116.509 Y29.793 E23.67415
G1 X118.535 Y28.296 E23.75794
G1 X120.514 Y26.745 E23.84157
G1 X122.488 Y25.105 E23.92693
G1 X123.971 Y23.822 E23.99215
G1 X124.71 Y23.246 E24.02331
G1 X125.498 Y22.736 E24.05453
G1 X126.328 Y22.297 E24.08576
G1 X127.194 Y21.935 E24.11698
G1 X128.088 Y21.651 E24.14818
G1 X129.004 Y21.445 E24.1794
G1 X129.899 Y21.326 E24.20943
G1 X130.531 Y21.288 E24.23049
G1 X131.17 Y21.273 E24.25175
G1 X154.531 Y21.273 E25.02874
G1 X155.397 Y21.285 E25.05755
G1 X156.334 Y21.341 E25.08877
G1 X157.262 Y21.48 E25.11998
G1 X158.175 Y21.701 E25.15122
G1 X159.031 Y21.989 E25.18126
G1 X159.922 Y22.379 E25.21361
G1 X160.744 Y22.831 E25.24481
G1 X161.495 Y23.333 E25.27485
G1 X162.253 Y23.944 E25.30724
G1 X162.879 Y24.545 E25.3361
G1 X163.715 Y25.417 E25.37628
G1 X165.546 Y27.273 E25.46299
G1 X167.393 Y29.041 E25.54803
G1 X169.251 Y30.723 E25.63139
G1 X171.187 Y32.376 E25.71606
G1 X173.131 Y33.946 E25.79917
G1 X175.158 Y35.488 E25.88388
G1 X177.202 Y36.955 E25.96756
G1 X179.311 Y38.379 E26.0522
G1 X181.443 Y39.732 E26.13618
G1 X183.605 Y41.021 E26.2199
G1 X185.807 Y42.251 E26.30379
G1 X188.072 Y43.433 E26.38877
G1 X190.32 Y44.526 E26.47191
G1 X192.646 Y45.577 E26.5568
G1 X194.977 Y46.552 E26.64084
G1 X197.173 Y47.404 E26.71918
G1 X198.031 Y47.783 E26.75038
G1 X198.853 Y48.237 E26.78161
G1 X199.63 Y48.761 E26.81278
G1 X200.36 Y49.352 E26.84402
G1 X201.033 Y50.005 E26.87521
G1 X201.646 Y50.716 E26.90643
G1 X202.195 Y51.478 E26.93767
G1 X202.674 Y52.286 E26.96891
G1 X203.079 Y53.133 E27.00014
G1 X203.396 Y53.978 E27.03016
G1 X203.656 Y54.915 E27.0625
G1 X203.826 Y55.843 E27.09388
G1 X203.92 Y56.982 E27.13189
G1 X203.933 Y57.597 E27.15235
G1 X203.932 Y77.037 E27.79893
G1 X203.921 Y77.756 E27.82284
G1 X203.865 Y78.693 E27.85406
G1 X203.726 Y79.621 E27.88527
G1 X203.505 Y80.534 E27.91652
G1 X203.205 Y81.422 E27.94769
G1 X202.827 Y82.282 E27.97894
G1 X202.374 Y83.105 E28.01018
G1 X201.851 Y83.883 E28.04136
G1 X201.261 Y84.613 E28.07258
G1 X200.61 Y85.286 E28.10372
G1 X200 Y85.821 E28.13071
G1 X199.095 Y86.552 E28.1694
G1 X197.099 Y88.214 E28.25579
G1 X195.187 Y89.899 E28.34056
G1 X193.33 Y91.63 E28.42499
G1 X191.57 Y93.366 E28.50721
G1 X189.788 Y95.227 E28.59291
G1 X188.096 Y97.097 E28.67679
G1 X186.442 Y99.032 E28.76146
G1 X184.886 Y100.959 E28.84383
G1 X183.336 Y102.998 E28.92902
G1 X181.867 Y105.045 E29.01282
G1 X180.439 Y107.159 E29.09767
G1 X179.098 Y109.271 E29.18088
G1 X177.803 Y111.444 E29.26502
G1 X176.568 Y113.656 E29.34928
G1 X175.396 Y115.903 E29.43357
G1 X174.289 Y118.179 E29.51775
G1 X173.25 Y120.476 E29.6016
G1 X172.269 Y122.826 E29.6863
G1 X171.363 Y125.177 E29.7701
G1 X170.521 Y127.562 E29.85422
G1 X169.745 Y129.976 E29.93856
G1 X169.054 Y132.353 E30.02089
G1 X168.402 Y134.855 E30.10689
G1 X167.834 Y137.324 E30.19115
G1 X167.338 Y139.797 E30.27504
G1 X166.916 Y142.262 E30.35822
G1 X166.56 Y144.763 E30.44224
G1 X166.271 Y147.305 E30.52733
G1 X166.058 Y149.794 E30.61042
G1 X165.915 Y152.332 E30.69497
G1 X165.842 Y154.891 E30.78012
G1 X165.833 Y156.204 E30.82379
G1 X165.832 Y183.697 E31.73821
G1 X165.82 Y184.442 E31.76299
G1 X165.763 Y185.379 E31.79421
G1 X165.623 Y186.307 E31.82543
G1 X165.401 Y187.219 E31.85665
G1 X165.1 Y188.108 E31.88786
G1 X164.721 Y188.967 E31.91909
G1 X164.268 Y189.788 E31.95028
G1 X163.744 Y190.566 E31.98148
G1 X163.154 Y191.296 E32.0127
G1 X162.5 Y191.97 E32.04393
G1 X161.79 Y192.583 E32.07513
G1 X161.029 Y193.132 E32.10634
G1 X160.253 Y193.594 E32.13638
G1 X159.375 Y194.016 E32.16878
G1 X158.496 Y194.345 E32.19999
G1 X157.592 Y194.595 E32.23119
G1 X156.664 Y194.765 E32.26257
G1 X155.519 Y194.86 E32.30078
G1 X154.912 Y194.873 E32.32098
G1 X150.609 Y194.873 E32.46409
G1 X148.014 Y194.91 E32.55041
G1 X145.449 Y195.019 E32.6358
G1 X142.956 Y195.196 E32.71893
G1 X140.435 Y195.445 E32.80319
G1 X137.927 Y195.766 E32.88728
G1 X135.433 Y196.158 E32.97125
G1 X132.968 Y196.616 E33.05464
G1 X130.465 Y197.155 E33.1398
G1 X128.019 Y197.754 E33.22356
G1 X125.586 Y198.423 E33.30748
G1 X123.173 Y199.162 E33.39142
G1 X120.771 Y199.973 E33.47574
G1 X118.379 Y200.855 E33.56054
G1 X116.083 Y201.777 E33.64283
G1 X113.712 Y202.809 E33.72883
G1 X111.416 Y203.885 E33.81317
G1 X109.194 Y205.004 E33.89592
G1 X106.946 Y206.219 E33.98091
G1 X104.778 Y207.469 E34.06414
G1 X102.604 Y208.806 E34.14903
G1 X100.503 Y210.182 E34.23256
G1 X98.415 Y211.636 E34.31719
G1 X96.389 Y213.133 E34.40097
G1 X94.41 Y214.684 E34.4846
G1 X92.456 Y216.306 E34.56906
G1 X91.849 Y216.84 E34.59595
G1 X90.956 Y217.605 E34.63506
G1 X90.245 Y218.162 E34.6651
G1 X89.428 Y218.692 E34.69749
G1 X88.598 Y219.131 E34.72872
G1 X87.732 Y219.493 E34.75994
G1 X86.838 Y219.778 E34.79115
G1 X85.922 Y219.982 E34.82236
G1 X84.998 Y220.105 E34.85337
G1 X84.393 Y220.141 E34.87353
G1 X83.745 Y220.156 E34.89508
G1 X60.247 Y220.155 E35.67663
G1 X59.528 Y220.144 E35.70055
G1 X58.591 Y220.088 E35.73177
G1 X57.663 Y219.949 E35.76298
G1 X56.75 Y219.728 E35.79422
G1 X55.862 Y219.428 E35.8254
G1 X55.002 Y219.05 E35.85664
G1 X54.179 Y218.597 E35.88789
G1 X53.401 Y218.074 E35.91907
G1 X52.672 Y217.485 E35.95024
G1 X52.062 Y216.9 E35.97835
G1 X51.217 Y216.021 E36.0189
G1 X49.37 Y214.148 E36.10639
G1 X47.545 Y212.401 E36.19042
